icons/Papirus-ZorinGreen-light/22x22/panel/crow-translate-tray.svg

<svg xmlns="http://www.w3.org/2000/svg" width="22" height="22" version="1.1">
 <defs>
  <style id="current-color-scheme" type="text/css">
   .ColorScheme-Text { color:#373E4D; } .ColorScheme-Highlight { color:#4285f4; }
  </style>
 </defs>
 <path style="opacity:0.3;fill:currentColor" class="ColorScheme-Text" d="m 11,2.999966 c -4.4183,0 -8,3.5817003 -8,8 0,2.607097 1.2531965,4.916373 3.1835938,6.376953 0.03539,-0.01963 0.072592,-0.03605 0.1074218,-0.05664 C 6.8640203,16.980863 7.4135433,16.581944 7.9433594,16.156216 6.1832049,15.110447 5,13.195734 5,10.999966 c 0,-3.3137247 2.686275,-6.0000001 6,-6 0.725915,0 1.418426,0.1348852 2.0625,0.3710938 0.0026,-0.5442422 -0.02297,-1.0879949 -0.117188,-1.6230469 0.05353,-0.1862907 0.07509,-0.2805062 0.115235,-0.4667969 3.09e-4,-0.00153 -3.05e-4,-0.0024 0,-0.00391 C 12.401947,3.1018812 11.713831,2.999966 11,2.999966 Z m 2.177734,0.3066406 c 0.158054,0.7229626 0.213691,1.4560413 0.212891,2.1914063 C 15.51401,6.4220231 17,8.5364374 17,10.999966 c 0,3.3135 -2.6865,6 -6,6 -0.968367,0 -1.879631,-0.235131 -2.6894531,-0.642578 -0.00877,0.0072 -0.01662,0.01629 -0.025391,0.02344 C 7.7061853,16.851913 7.0814138,17.237679 6.4199219,17.5527 7.7180365,18.46179 9.294935,18.999966 11,18.999966 c 4.418,0 8,-3.582 8,-8 0,-3.6623318 -2.463947,-6.7440277 -5.822266,-7.6933594 z"/>
 <path style="fill:currentColor" class="ColorScheme-Text" d="m 13.115234,3.0019191 c -0.01912,0.1098135 -0.03175,0.1655615 -0.05469,0.2792969 -0.04015,0.1862907 -0.0617,0.2805062 -0.115235,0.4667969 0.156771,0.8902736 0.160249,1.8069685 0.07422,2.703125 -0.01964,0.2041821 -0.04801,0.4079682 -0.08398,0.6113281 -0.01873,0.046093 0.373047,0.037109 0.373047,0.037109 0.02959,-0.2111748 0.05105,-0.4222258 0.06055,-0.6308594 0.05162,-1.1608854 0.04625,-2.329443 -0.253907,-3.4667969 z M 12.916016,7.109341 C 12.534593,7.4478395 12.149281,7.8066615 11.863281,8.2148098 11.173678,9.200798 10.734487,10.447004 9.84375,11.298794 9.48171,11.64361 9.05987,11.944281 8.6269531,12.20895 8.854905,12.24249 9.107984,12.2653 9.335938,12.21875 8.8762021,12.509514 8.3617782,12.786143 7.9863281,13.173828 7.8005187,13.363943 7.6077972,13.558289 7.4277344,13.755859 7.5733172,13.666389 7.7436902,13.564401 7.9199219,13.5625 c 0.2911653,-0.0037 0.8496094,-0.326172 0.8496093,-0.326172 0,0 -1.0514205,0.676332 -1.4824218,1.095703 -0.2451918,0.238576 -0.5217103,0.466157 -0.7324219,0.738281 -0.1896425,0.246011 -0.1933594,0.240235 -0.1933594,0.240235 0.3543788,-0.130472 0.7143186,-0.265557 1.0859375,-0.345703 -0.1494138,0.05405 -0.2217177,0.08053 -0.3730468,0.130859 -0.3294767,0.130472 -0.7066937,0.228557 -0.9882813,0.392578 -0.5076238,0.296356 -1.0108179,1.057212 -1.3632813,1.558594 -0.187725,0.26467 -0.4971456,0.489594 -0.6503906,0.761719 -0.088116,0.156566 -0.079665,0.320323 -0.058594,0.361328 0.1551604,0.285172 0.9302142,0.526483 1.3554687,0.630859 C 5.8805953,18.923797 6.4185328,18.979498 6.9453122,19 7.2575486,18.93477 7.5806792,18.805872 7.8105466,18.585938 8.1227831,18.287716 8.5738433,17.999103 8.7539059,17.613281 8.8573465,17.395207 9.015772,17.26738 9.021484,17.263672 c -0.2356138,0.389551 -0.4937655,0.767137 -0.7734374,1.125 -0.1340893,0.169613 -0.3183594,0.384766 -0.3183594,0.384766 0.3122364,-0.111832 0.6388226,-0.295376 0.9453125,-0.345704 0.1896413,-0.03169 0.3993403,-0.119707 0.5449223,-0.253906 0.15516,-0.143518 0.389423,-0.200411 0.527344,-0.347656 0.381196,-0.408188 0.637996,-1.030293 1.001953,-1.458984 0.04597,-0.05405 0.155949,-0.194987 0.240234,-0.310547 0.06705,-0.09319 0.121094,-0.171875 0.121094,-0.171875 -0.193471,0.43801 -0.387021,0.883629 -0.601563,1.308593 -0.0019,0.0038 -0.002,0.008 -0.0039,0.01172 -0.06513,0.117425 -0.162114,0.23165 -0.261719,0.337891 -0.01342,0.0149 -0.02565,0.02805 -0.03906,0.04297 -0.01723,0.01862 -0.0072,0.01884 0.01953,0.0039 0.388859,-0.205026 0.731897,-0.517641 1.103516,-0.763672 0.01149,-0.0074 0.02364,-0.01393 0.03125,-0.01953 0.277757,-0.160293 0.52355,-0.444483 0.728515,-0.671875 0.193472,-0.214346 0.292029,-0.344715 0.34375,-0.650391 0.0019,-0.0093 0.002,-0.01802 0.0039,-0.02734 0.06321,-0.441738 0.130745,-0.882302 0.224609,-1.320312 0.01915,-0.09133 0.03343,-0.168962 0.04492,-0.230469 0,-0.0074 0.002,-0.01798 0.0039,-0.02539 0.0019,-0.0149 0.0059,-0.02992 0.0078,-0.04297 0.0019,-0.0074 0.002,-0.01406 0.0039,-0.02149 0.0019,-0.01305 0.004,-0.02388 0.0059,-0.0332 v -0.002 c 0,-0.0056 0.004,-0.02578 0.0059,-0.0332 0.0038,-0.0205 0.0293,-0.09375 0.0293,-0.09375 v 0.0293 0.01758 c -0.01537,0.773508 -0.140246,1.606728 -0.02149,2.367187 0.08812,0.56289 0.138672,0.447266 0.138672,0.447266 0.05172,-0.663539 -0.01721,-1.470324 0.201172,-2.074219 0.147498,-0.408189 0.384317,-0.851142 0.460937,-1.291015 0.07853,-0.451058 0.07594,-0.932291 0.06445,-1.394532 -0.01532,-0.598303 -0.05248,-1.200436 -0.138672,-1.796875 0.08045,0.283309 0.19756,0.580329 0.21289,0.871094 0.01532,0.275852 0.02364,0.560353 0.03125,0.841797 0.06513,-0.346679 0.114488,-0.716086 0.07617,-1.068359 -0.03644,-0.324313 0.02664,-0.655888 -0.0098,-0.97461 C 13.928704,9.211407 13.915204,8.7602453 13.77345,8.3632402 13.637444,7.9755547 13.460875,7.5887271 13.357434,7.1991778 c -0.0097,-0.035937 -0.03412,-0.065095 -0.0625,-0.089844 -0.150269,1.0644461 -0.515311,2.1478742 -0.84961,3.1406252 -0.422507,1.256972 -1.099697,2.319669 -1.736328,3.458984 -0.585013,1.045189 -1.511896,1.928673 -2.4238281,2.671875 -0.7953115,0.647116 -1.6747492,1.141153 -2.6210937,1.498047 -0.2944183,0.109814 -0.6239224,0.148399 -0.9355469,0.158203 -0.2294169,0.0059 -0.3927434,-0.0078 -0.4003906,-0.0078 0.6767797,-0.145111 1.3625832,-0.354052 1.9628906,-0.708985 1.6651839,-0.98636 3.2340037,-2.336875 4.2109377,-4.058593 0.621337,-1.092252 1.208062,-2.16513 1.617188,-3.365235 0.305941,-0.9015956 0.623828,-1.8387632 0.796875,-2.7871092 z"/>
</svg>

<svg xmlns="http://www.w3.org/2000/svg" width="22" height="22" version="1.1">
 <defs>
  <style id="current-color-scheme" type="text/css">
   .ColorScheme-Text { color:#373e4d; } .ColorScheme-Highlight { color:#4285f4; }
  </style>
 </defs>
 <path style="opacity:0.3;fill:currentColor" class="ColorScheme-Text" d="M 11,3 C 6.5817,3 3,6.5817 3,11 3,13.607 4.2532,15.916 6.1836,17.377 6.219,17.357 6.2562,17.341 6.291,17.32 6.864,16.981 7.4135,16.582 7.9434,16.156 6.1832,15.11 5,13.196 5,11 5,7.6862 7.6863,5 11,5 11.726,5 12.418,5.1349 13.063,5.3711 13.065,4.8268 13.04,4.2831 12.945,3.748 12.999,3.5617 13.02,3.4675 13.061,3.2812 V 3.2773 C 12.402,3.1019 11.714,3 11,3 Z M 13.178,3.3066 C 13.336,4.0296 13.391,4.7626 13.391,5.498 15.514,6.422 17,8.5364 17,11 17,14.313 14.314,17 11,17 10.032,17 9.1204,16.765 8.3105,16.357 8.3018,16.365 8.2939,16.374 8.2852,16.381 7.7062,16.852 7.0814,17.238 6.4199,17.553 7.718,18.462 9.2949,19 11,19 15.418,19 19,15.418 19,11 19,7.3376 16.536,4.2559 13.178,3.3066 Z"/>
 <path style="fill:currentColor" class="ColorScheme-Text" d="M 13.115,3.002 C 13.115,3.002 13.083,3.1676 13.061,3.2813 13.02,3.4676 12.945,3.7481 12.945,3.7481 13.102,4.6384 13.106,5.5551 13.02,6.4512 L 12.936,7.0626 C 12.917,7.1087 13.309,7.0997 13.309,7.0997 L 13.369,6.4688 C 13.421,5.3079 13.415,4.1394 13.115,3.002 Z M 12.916,7.1094 C 12.535,7.4479 12.149,7.8068 11.863,8.2149 11.174,9.2009 10.734,10.447 9.8437,11.299 9.4817,11.644 8.627,12.209 8.627,12.209 8.8549,12.242 9.108,12.265 9.3359,12.219 8.8762,12.51 8.3618,12.786 7.9863,13.174 7.9863,13.174 7.6078,13.558 7.4277,13.756 7.5733,13.666 7.7437,13.564 7.9199,13.563 8.2111,13.559 8.7695,13.236 8.7695,13.236 8.7695,13.236 7.7181,13.913 7.2871,14.332 7.2871,14.332 6.7654,14.798 6.5547,15.07 L 6.3613,15.311 C 6.7157,15.18 7.0756,15.045 7.4473,14.965 L 7.0742,15.096 C 6.7447,15.226 6.3675,15.324 6.0859,15.488 5.5783,15.785 5.0751,16.545 4.7227,17.047 4.5349,17.312 4.2255,17.536 4.0723,17.809 3.9841,17.965 3.9926,18.129 4.0137,18.17 4.1688,18.455 4.9439,18.696 5.3691,18.801 5.8806,18.924 6.4185,18.979 6.9453,19 7.2575,18.935 7.5807,18.806 7.8105,18.586 8.1228,18.288 8.5738,17.999 8.7539,17.613 8.8573,17.395 9.0158,17.267 9.0215,17.264 8.7859,17.653 8.5277,18.031 8.248,18.389 8.114,18.558 7.9297,18.773 7.9297,18.773 8.2419,18.662 8.5685,18.478 8.875,18.428 9.0646,18.396 9.2743,18.308 9.4199,18.174 9.5751,18.03 9.8093,17.973 9.9473,17.826 10.328,17.418 10.585,16.796 10.949,16.367 L 11.189,16.057 11.311,15.885 10.709,17.193 10.705,17.205 C 10.64,17.323 10.543,17.437 10.443,17.543 L 10.404,17.586 10.424,17.59 C 10.813,17.385 11.156,17.072 11.527,16.826 L 11.559,16.807 C 11.836,16.646 12.082,16.362 12.287,16.135 12.481,15.92 12.579,15.79 12.631,15.484 L 12.635,15.457 12.859,14.137 12.932,13.748 12.961,13.654 V 13.701 C 12.946,14.475 12.821,15.308 12.94,16.068 13.028,16.631 13.078,16.516 13.078,16.516 13.13,15.852 13.061,15.045 13.279,14.441 13.427,14.033 13.664,13.59 13.74,13.15 13.819,12.699 13.816,12.218 13.805,11.756 13.789,11.158 13.752,10.555 13.666,9.959 13.747,10.242 13.864,10.539 13.879,10.83 L 13.91,11.672 C 13.975,11.325 14.025,10.956 13.986,10.603 13.95,10.279 14.013,9.9477 13.977,9.629 13.977,9.629 13.915,8.7603 13.773,8.3633 13.637,7.9757 13.461,7.5888 13.357,7.1993 L 13.295,7.1094 C 13.145,8.1739 12.78,9.2573 12.445,10.25 12.023,11.507 11.346,12.57 10.709,13.709 10.124,14.754 9.1971,15.638 8.2852,16.381 7.4899,17.028 6.6104,17.522 5.6641,17.879 5.3697,17.989 5.0402,18.027 4.7285,18.037 4.4991,18.043 4.3281,18.029 4.3281,18.029 5.0049,17.884 5.6907,17.675 6.291,17.32 7.9562,16.334 9.525,14.983 10.502,13.262 11.123,12.169 11.71,11.097 12.119,9.8966 12.425,8.995 12.743,8.0578 12.916,7.1094 Z"/>
</svg>
